src/topics/icons/box.svg

<svg height="256" preserveAspectRatio="xMidYMid" viewBox="0 0 256 256" width="256" xmlns="http://www.w3.org/2000/svg"><path d="m213.564 256h-171.128c-23.437 0-42.436-18.999-42.436-42.436v-171.128c0-23.437 18.999-42.436 42.436-42.436h171.128c23.437 0 42.436 18.999 42.436 42.436v171.128c0 23.437-18.999 42.436-42.436 42.436" fill="#00aeef"/><g fill="#fff"><path d="m131.02 107.786c-13.319 0-24.909 7.492-30.746 18.491-5.839-10.999-17.423-18.491-30.751-18.491-7.826 0-15.056 2.589-20.89 6.961v-29.323c-.069-3.789-3.159-6.822-6.961-6.822s-6.862 3.033-6.949 6.822v57.742h.007c.307 18.959 15.757 34.232 34.793 34.232 13.328 0 24.912-7.499 30.751-18.487 5.837 10.988 17.427 18.487 30.746 18.487 19.216 0 34.804-15.582 34.804-34.813 0-19.221-15.588-34.799-34.804-34.799m-61.497 55.677c-11.531 0-20.89-9.341-20.89-20.873 0-11.528 9.359-20.87 20.89-20.87 11.53 0 20.869 9.342 20.869 20.865 0 11.534-9.339 20.878-20.869 20.878m61.497 0c-11.534 0-20.886-9.344-20.886-20.878 0-11.523 9.352-20.865 20.886-20.865 11.529 0 20.876 9.342 20.876 20.865 0 11.534-9.347 20.878-20.876 20.878"/><path d="m219.83 165.745-18.918-23.205 18.941-23.25c2.395-3.067 1.708-7.35-1.598-9.625-3.31-2.295-7.954-1.707-10.515 1.269v-.004l-16.296 19.972-16.281-19.972v.004c-2.535-2.976-7.208-3.564-10.508-1.269-3.3 2.277-3.99 6.558-1.583 9.625h-.007l18.908 23.25-18.908 23.205h.007c-2.407 3.077-1.717 7.346 1.583 9.631s7.973 1.703 10.508-1.277l16.281-19.944 16.273 19.944c2.564 2.98 7.206 3.562 10.516 1.277 3.307-2.285 3.997-6.554 1.597-9.631"/></g></svg>

<?xml version="1.0" encoding="UTF-8" standalone="no"?>
<svg width="256px" height="256px" viewBox="0 0 256 256" version="1.1" xmlns="http://www.w3.org/2000/svg" xmlns:xlink="http://www.w3.org/1999/xlink" preserveAspectRatio="xMidYMid">
	<g>
		<path d="M213.564,256 L42.436,256 C18.999,256 0,237.001 0,213.564 L0,42.436 C0,18.999 18.999,0 42.436,0 L213.564,0 C237.001,0 256,18.999 256,42.436 L256,213.564 C256,237.001 237.001,256 213.564,256" fill="#00AEEF"></path>
		<path d="M131.02,107.786 C117.701,107.786 106.111,115.278 100.274,126.277 C94.435,115.278 82.851,107.786 69.523,107.786 C61.697,107.786 54.467,110.375 48.633,114.747 L48.633,85.424 C48.564,81.635 45.474,78.602 41.672,78.602 C37.87,78.602 34.81,81.635 34.723,85.424 L34.723,143.166 L34.73,143.166 C35.037,162.125 50.487,177.398 69.523,177.398 C82.851,177.398 94.435,169.899 100.274,158.911 C106.111,169.899 117.701,177.398 131.02,177.398 C150.236,177.398 165.824,161.816 165.824,142.585 C165.824,123.364 150.236,107.786 131.02,107.786 M69.523,163.463 C57.992,163.463 48.633,154.122 48.633,142.59 C48.633,131.062 57.992,121.72 69.523,121.72 C81.053,121.72 90.392,131.062 90.392,142.585 C90.392,154.119 81.053,163.463 69.523,163.463 M131.02,163.463 C119.486,163.463 110.134,154.119 110.134,142.585 C110.134,131.062 119.486,121.72 131.02,121.72 C142.549,121.72 151.896,131.062 151.896,142.585 C151.896,154.119 142.549,163.463 131.02,163.463" fill="#FFFFFF"></path>
		<path d="M219.83,165.745 L200.912,142.54 L219.853,119.29 C222.248,116.223 221.561,111.94 218.255,109.665 C214.945,107.37 210.301,107.958 207.74,110.934 L207.74,110.93 L191.444,130.902 L175.163,110.93 L175.163,110.934 C172.628,107.958 167.955,107.37 164.655,109.665 C161.355,111.942 160.665,116.223 163.072,119.29 L163.065,119.29 L181.973,142.54 L163.065,165.745 L163.072,165.745 C160.665,168.822 161.355,173.091 164.655,175.376 C167.955,177.661 172.628,177.079 175.163,174.099 L191.444,154.155 L207.717,174.099 C210.281,177.079 214.923,177.661 218.233,175.376 C221.54,173.091 222.23,168.822 219.83,165.745" fill="#FFFFFF"></path>
	</g>
</svg>
